X:4
T:Jockie wed a owing go
Z:Jack Campin - http://www.campin.me.uk
S:Blaikie MS (NLS MS.1578) p1, Blaikie #3
M:6/8
L:1/8
V:1 midi program 1 74
V:2 midi program 1 46 bass middle = d transpose -24
Q:3/8=108
N:Blaikie markes the variant repeat by superposed
N:notes; no indication whether A or c comes first
K:D
[V:1] D2F FEF|A2F E2F|D2F FEF|Fdc [1 B2A:|\
                                  [2 B2c||
[V:2] D3  d3 |d3  A3 |D3  d3 |D3  [1 d3 :|\
                                  [2 d3 ||
%
[V:1] dcd ede|ccB ABc|c2d A2F|E2F    D3 :|
[V:2] d3  A3 |a3  g3 |f3  d3 |A3     d3 :|
W:Transcription (c) Jack Campin 2009, no mirroring or republication without permission

